img/svg/responsibility-icon1.svg

<svg width="80" height="80" viewBox="0 0 80 80" fill="none" xmlns="http://www.w3.org/2000/svg">
<circle cx="40" cy="40" r="40" fill="#0055FF" fill-opacity="0.03"/>
<path fill-rule="evenodd" clip-rule="evenodd" d="M22.8085 27.9895C23.255 27.9895 23.6169 28.3515 23.6169 28.798V50.5712L36.2619 53.3811L48.9081 50.5712V28.798C48.9081 28.3515 49.2701 27.9895 49.7166 27.9895C50.1631 27.9895 50.5251 28.3515 50.5251 28.798V51.2198C50.5251 51.5987 50.2619 51.9268 49.8919 52.009L36.4372 54.9985C36.3217 55.0241 36.202 55.0241 36.0865 54.9985L22.6331 52.009C22.2632 51.9268 22 51.5987 22 51.2198V28.798C22 28.3515 22.362 27.9895 22.8085 27.9895Z" fill="#0084FF"/>
<path fill-rule="evenodd" clip-rule="evenodd" d="M25.3118 25.163C25.5144 25.0103 25.7769 24.9614 26.0208 25.0311L36.4844 28.0206C36.8315 28.1198 37.0708 28.437 37.0708 28.798V51.2197C37.0708 51.4639 36.9604 51.695 36.7706 51.8485C36.5807 52.002 36.3316 52.0614 36.0929 52.0103L25.6293 49.7678C25.2565 49.6879 24.9902 49.3585 24.9902 48.9773V25.8085C24.9902 25.5548 25.1093 25.3158 25.3118 25.163ZM26.6072 26.8803V48.3237L35.4538 50.2197V29.4078L26.6072 26.8803Z" fill="#0084FF"/>
<path fill-rule="evenodd" clip-rule="evenodd" d="M47.2134 25.163C47.4159 25.3158 47.535 25.5548 47.535 25.8085V48.9773C47.535 49.3585 47.2687 49.6879 46.8959 49.7678L36.431 52.0103C36.1923 52.0614 35.9432 52.002 35.7533 51.8485C35.5635 51.695 35.4531 51.4639 35.4531 51.2197V28.798C35.4531 28.437 35.6924 28.1197 36.0395 28.0206L46.5045 25.0311C46.7484 24.9614 47.0109 25.0103 47.2134 25.163ZM37.0701 29.4078V50.2197L45.9181 48.3237V26.8802L37.0701 29.4078Z" fill="#0084FF"/>
<path fill-rule="evenodd" clip-rule="evenodd" d="M53.3945 25.8085C53.3945 25.362 53.7565 25 54.203 25H57.1928C57.6393 25 58.0013 25.362 58.0013 25.8085V28.798C58.0013 29.2445 57.6393 29.6064 57.1928 29.6064H54.203C53.7565 29.6064 53.3945 29.2445 53.3945 28.798V25.8085ZM55.0115 26.6169V27.9895H56.3843V26.6169H55.0115Z" fill="#0084FF"/>
<path fill-rule="evenodd" clip-rule="evenodd" d="M53.3945 28.798C53.3945 28.3515 53.7565 27.9895 54.203 27.9895H57.1928C57.6393 27.9895 58.0013 28.3515 58.0013 28.798V51.2198C58.0013 51.3453 57.972 51.4692 57.9158 51.5815L56.4203 54.571C56.2833 54.8448 56.0033 55.0178 55.6971 55.0177C55.3909 55.0177 55.111 54.8446 54.9741 54.5707L53.4798 51.5812C53.4237 51.469 53.3945 51.3452 53.3945 51.2198V28.798ZM55.0115 29.6064V51.029L55.6975 52.4016L56.3843 51.0288V29.6064H55.0115Z" fill="#0084FF"/>
</svg>

<svg width="80" height="80" viewBox="0 0 80 80" fill="none" xmlns="http://www.w3.org/2000/svg"><circle cx="40" cy="40" r="40" fill="#05F" fill-opacity=".03"/><path fill-rule="evenodd" clip-rule="evenodd" d="M22.808 27.99c.447 0 .809.362.809.808v21.773l12.645 2.81 12.646-2.81V28.798a.809.809 0 011.617 0V51.22a.808.808 0 01-.633.789l-13.455 2.99a.81.81 0 01-.35 0l-13.454-2.99a.808.808 0 01-.633-.79v-22.42c0-.446.362-.808.808-.808z" fill="#0084FF"/><path fill-rule="evenodd" clip-rule="evenodd" d="M25.312 25.163a.809.809 0 01.709-.132l10.463 2.99a.809.809 0 01.587.777V51.22a.809.809 0 01-.978.79l-10.464-2.242a.808.808 0 01-.639-.79v-23.17a.81.81 0 01.322-.645zm1.295 1.717v21.444l8.847 1.896V29.408l-8.847-2.528z" fill="#0084FF"/><path fill-rule="evenodd" clip-rule="evenodd" d="M47.213 25.163a.809.809 0 01.322.645v23.17c0 .38-.266.71-.64.79L36.432 52.01a.809.809 0 01-.978-.79V28.798c0-.361.24-.678.586-.777l10.465-2.99a.809.809 0 01.71.132zM37.07 29.408V50.22l8.848-1.896V26.88l-8.848 2.528zm16.325-3.6c0-.446.361-.808.808-.808h2.99c.446 0 .808.362.808.808v2.99a.808.808 0 01-.808.808h-2.99a.808.808 0 01-.809-.808v-2.99zm1.616.809v1.372h1.373v-1.372h-1.373z" fill="#0084FF"/><path fill-rule="evenodd" clip-rule="evenodd" d="M53.395 28.798c0-.446.361-.808.808-.808h2.99c.446 0 .808.362.808.808V51.22c0 .125-.029.25-.085.361l-1.496 2.99a.808.808 0 01-1.446 0l-1.494-2.99a.808.808 0 01-.085-.361V28.798zm1.616.808V51.03l.686 1.373.687-1.373V29.606h-1.373z" fill="#0084FF"/></svg>
